X:84
T:Jesus, Tender Shepherd, Hear Me
% Four-part piano arrangement for standard notation.
C:Claribel / Mrs. Charles Barnard (Claribel), 1834-1869
S:From "The One Hundred and One Best Songs" / The Cable Company / 1919 / Chicago, Illinois
M:4/4
L:1/4
Q:1/4=80
%%staves [(1 2) (3 4)]
K:G
V:1 clef=treble
B A G D | F E E D | G G B B | A B A2 |
w:1.~Je-sus, ten-der Shep-herd, hear me; Bless Thy lit-tle lamb to-night;
w:2.~All this day Thy hand has led me, And I thank Thee for Thy care;
w:3.~Let my sins be all for-giv-en; Bless the friends I love so well;
V:2 clef=treble
G F E D | D C C B, | B, B, D D | ^C ^C D2 |
V:3 clef=bass
%%MIDI transpose -24
%%jsastem=dn
d' c' b g | g g g g | e g g g | g g f2 |
V:4 clef=bass
%%MIDI transpose -24
%%jsastem=dn
g d e B | c c G G | e e B G | A A d2 |
V:1
B A G D | F E E D | G G G F/G/ | B A G2 | G2 G2 |]
w:Thro' the dark-ness be Thou near me, Keep me safe till* morn-ing light.**
w:Thou hast clothed me, warmed and fed me, Lis-ten to my* eve-ning prayer!**
w:Take me, when I die, to heav-en, Hap-py there with* Thee to dwell. A-MEN.
V:2
D F E D | D C C B, | B, C ^C ^C | D C B,2 | C2 B,2 |]
V:3
g c' b g | g g g g | g g g g | g f g2 | e2 d2 |]
V:4
g d e B | c c G G | e e _e _e | d d G2 | c2 G2 |]

